icon-themes/breeze_svg/cmd/32/square_rounded_unfilled.svg

<svg viewBox="0 0 32 32" xmlns="http://www.w3.org/2000/svg"><path d="m7 4c-1.66198 0-3 1.33802-3 3v18c0 1.66198 1.33802 3 3 3h18c1.66198 0 3-1.33802 3-3v-18c0-1.66198-1.33802-3-3-3zm0 1h18c1.108015 0 2 .8919853 2 2v18c0 1.108015-.891985 2-2 2h-18c-1.1080147 0-2-.891985-2-2v-18c0-1.1080147.8919853-2 2-2z" fill="#4d4d4d"/></svg>

<svg xmlns="http://www.w3.org/2000/svg" viewBox="0 0 32 32">
 <path 
     style="fill:#4d4d4d" 
     d="M 7 4 C 5.33802 4 4 5.33802 4 7 L 4 25 C 4 26.66198 5.33802 28 7 28 L 25 28 C 26.66198 28 28 26.66198 28 25 L 28 7 C 28 5.33802 26.66198 4 25 4 L 7 4 z M 7 5 L 25 5 C 26.108015 5 27 5.8919853 27 7 L 27 25 C 27 26.108015 26.108015 27 25 27 L 7 27 C 5.8919853 27 5 26.108015 5 25 L 5 7 C 5 5.8919853 5.8919853 5 7 5 z "
     />
</svg>
